!!!OTL: Gemalte Rosen Es ging ein Maedchen Wasser hol'n
!!!ARE: Europa, Mitteleuropa, Lothringen, Gebenhausen
!!!SCT: D0027
!!!YEM: Copyright 1995, estate of Helmut Schaffrath.
**kern
*ICvox
*Ivox
*M2/2
*k[f#c#]
*D:
{4a
=1
4dd
4a
4a
4a
=2
4b
4a
4a}
{4a
=3
4.b
8g
4g
4f#
=4
2f#
2e}
=5
{2d
2f#
=6
2.a
4r}
=7
{2a
2cc#
=8
2.ee}
{4dd
=9
4cc#
4b
4a
4g
=10
2g
4f#}
==
!!!AGN: Ballade, Liebe
!! Inzipit = Variante zum Lied
!!!ONB: ESAC (Essen Associative Code) Database: DVA
!!!AMT: simple duple
!!!AIN: vox
!!!EED: Helmut Schaffrath
!!!EEV: 1.0
*-
